lib/flags/s/SVN.svg

<svg xmlns="http://www.w3.org/2000/svg" fill="none" viewBox="0 0 16 12"><mask id="SVN_svg__a" width="16" height="12" x="0" y="0" mask-type="alpha" maskUnits="userSpaceOnUse"><path fill="#fff" d="M0 0H16V12H0z"/></mask><g mask="url(#SVN_svg__a)"><path fill="#2E42A5" fill-rule="evenodd" d="M0 0V12H16V0H0Z" clip-rule="evenodd"/><mask id="SVN_svg__b" width="16" height="12" x="0" y="0" mask-type="alpha" maskUnits="userSpaceOnUse"><path fill="#fff" fill-rule="evenodd" d="M0 0V12H16V0H0Z" clip-rule="evenodd"/></mask><g mask="url(#SVN_svg__b)"><path fill="#F7FCFF" fill-rule="evenodd" d="M0 0V4H16V0H0Z" clip-rule="evenodd"/><path fill="#C51918" fill-rule="evenodd" d="M0 8V12H16V8H0Z" clip-rule="evenodd"/><path fill="#2E42A5" fill-rule="evenodd" d="M6.87012 2.51821C6.87012 2.51821 5.81775 2.02124 4.50885 2.02124C3.19995 2.02124 2.14758 2.51821 2.14758 2.51821C2.14758 2.51821 2.2647 4.51557 2.4498 5.57367C2.52883 6.02544 2.9087 6.68436 3.2526 6.99624C3.64458 7.35172 4.50885 7.77286 4.50885 7.77286C4.75896 7.60052 5.22659 7.52302 5.82431 6.99624C6.42202 6.46946 6.57059 5.57367 6.57059 5.57367L6.87012 2.51821Z" clip-rule="evenodd"/><path fill="#C51918" stroke="#C51918" d="M6.73102 2.45288L7.16928 2.67174L6.86842 5.68305C6.76305 6.32039 6.49939 6.82298 6.07775 7.19458C5.84902 7.39616 5.62576 7.54678 5.38639 7.67193C5.25128 7.74257 4.68611 8.0337 4.69103 8.03132C4.6344 8.05862 4.59146 8.08252 4.55658 8.10655L4.50192 8.14422L4.4429 8.11546C3.85752 7.83022 3.31137 7.44635 3.03996 7.20022C2.66947 6.86423 2.27883 6.1767 2.19555 5.70063C2.07102 4.9888 1.95935 4.00835 1.88098 2.67174L2.27468 2.46577C2.35246 3.79231 2.44635 4.84977 2.56863 5.54875C2.64097 5.96229 3.0012 6.59629 3.32982 6.8943C3.57268 7.11454 3.96395 7.35876 4.50192 7.62437C4.53401 7.60556 4.56957 7.58695 4.61026 7.56734C4.6114 7.56679 4.97736 7.40427 5.10454 7.33778C5.32761 7.22115 5.53496 7.08127 5.74844 6.89312C6.12273 6.56326 6.35633 6.11902 6.45081 5.55468L6.73102 2.45288Z"/><path fill="#fff" fill-rule="evenodd" d="M2.77106 5.51221C2.77106 5.51221 3.02892 6.30113 3.48052 6.74146C3.93211 7.18179 4.49038 7.39762 4.49038 7.39762C4.49038 7.39762 5.15532 7.19641 5.5327 6.77279C5.91009 6.34916 6.29644 5.51221 6.29644 5.51221L5.41879 4.66992L5.06996 5.04846L4.49038 4.22217L4.00515 5.04846L3.63308 4.66992L2.77106 5.51221Z" clip-rule="evenodd"/><path fill="#FECA00" fill-rule="evenodd" d="M3.57342 2.94314H3.22186L3.49453 2.6877 3.22186 2.41777H3.57342L3.72186 2.15576 3.8709 2.41777H4.22186L3.96283 2.67149 4.19284 2.94314H3.8709L3.72186 3.21964 3.57342 2.94314zM5.23028 2.94314H4.87872L5.15139 2.6877 4.87872 2.41777H5.23028L5.37872 2.15576 5.52776 2.41777H5.87872L5.61969 2.67149 5.8497 2.94314H5.52776L5.37872 3.21964 5.23028 2.94314zM4.29999 3.78372H3.94843L4.2211 3.52828 3.94843 3.25835H4.29999L4.44843 2.99634 4.59746 3.25835H4.94843L4.68939 3.51207 4.9194 3.78372H4.59746L4.44843 4.06022 4.29999 3.78372z" clip-rule="evenodd"/></g></g></svg>

<svg xmlns="http://www.w3.org/2000/svg" fill="none" viewBox="0 0 16 12"><mask id="SVN_svg__a" width="16" height="12" x="0" y="0" maskUnits="userSpaceOnUse"><path fill="#fff" d="M0 0h16v12H0z"/></mask><g mask="url(#SVN_svg__a)"><path fill="#2E42A5" fill-rule="evenodd" d="M0 0v12h16V0H0z" clip-rule="evenodd"/><mask id="SVN_svg__b" width="16" height="12" x="0" y="0" maskUnits="userSpaceOnUse"><path fill="#fff" fill-rule="evenodd" d="M0 0v12h16V0H0z" clip-rule="evenodd"/></mask><g mask="url(#SVN_svg__b)"><path fill="#F7FCFF" fill-rule="evenodd" d="M0 0v4h16V0H0z" clip-rule="evenodd"/><path fill="#C51918" fill-rule="evenodd" d="M0 8v4h16V8H0z" clip-rule="evenodd"/><path fill="#2E42A5" fill-rule="evenodd" d="M6.87 2.518s-1.052-.497-2.361-.497c-1.31 0-2.361.497-2.361.497s.117 1.997.302 3.056c.079.451.459 1.11.803 1.422.392.356 1.256.777 1.256.777.25-.173.718-.25 1.315-.777.598-.527.747-1.422.747-1.422l.3-3.056z" clip-rule="evenodd"/><path fill="#C51918" stroke="#C51918" d="M6.731 2.453l.438.219-.3 3.011c-.106.637-.37 1.14-.791 1.512a3.422 3.422 0 01-.692.477l-.695.36a1.01 1.01 0 00-.134.074l-.055.038-.06-.029c-.584-.285-1.13-.669-1.402-.915-.37-.336-.761-1.023-.844-1.5-.125-.711-.237-1.692-.315-3.028l.394-.206c.077 1.326.171 2.384.294 3.083.072.413.432 1.047.76 1.345.244.22.635.465 1.173.73l.108-.057c.001 0 .367-.163.495-.23.223-.116.43-.256.643-.444.375-.33.608-.774.703-1.338l.28-3.102z"/><path fill="#fff" fill-rule="evenodd" d="M2.771 5.512s.258.789.71 1.23c.451.44 1.01.655 1.01.655s.664-.2 1.042-.624c.377-.424.763-1.26.763-1.26L5.42 4.67l-.349.378-.58-.826-.485.826-.372-.378-.862.842z" clip-rule="evenodd"/><path fill="#FECA00" fill-rule="evenodd" d="M3.573 2.943h-.351l.273-.255-.273-.27h.351l.149-.262.149.262h.35l-.258.253.23.272H3.87l-.15.277-.148-.277zm1.657 0h-.35l.272-.255-.272-.27h.351l.149-.262.149.262h.35l-.258.253.23.272h-.322l-.15.277-.148-.277zm-.93.841h-.352l.273-.256-.273-.27H4.3l.148-.262.15.262h.35l-.259.254.23.272h-.322l-.149.276-.148-.276z" clip-rule="evenodd"/></g></g></svg>
